public/icons/contacts.svg

<svg xmlns:xlink="http://www.w3.org/1999/xlink" xmlns="http://www.w3.org/2000/svg" viewBox="0 0 24 24" height="24" width="24" preserveAspectRatio="xMidYMid meet" class="" fill="none"><title>community-tab</title><path d="M19.992 17C20.0031 16.2628 20.0099 15.9937 19.9606 15.4041C19.9559 15.347 19.9506 15.2962 19.9447 15.253C19.9007 14.9282 19.8237 14.6238 19.7226 14.3419C19.68 14.2233 19.6332 14.1094 19.5828 13.9999C19.5738 13.9805 19.5647 13.9611 19.5555 13.942C19.4612 13.7454 19.355 13.5636 19.2404 13.3956C19.3264 13.392 19.4137 13.3898 19.5023 13.3892L19.5555 13.389C20.2632 13.389 20.8883 13.4899 21.401 13.6205C21.4627 13.6362 21.5228 13.6523 21.5813 13.6688L21.5915 13.6717L21.6087 13.6766C22.069 13.8088 22.5875 14.0227 23.0245 14.3595C23.4788 14.7097 23.8921 15.2338 23.9736 15.9559C24.0117 16.2932 24 16.0153 23.9908 16.4244C23.9744 17.1535 23.3769 19 22.6608 19H19.6869C19.8643 18.6252 19.9692 17.9298 19.9822 17.4856C19.985 17.3925 19.9887 17.2199 19.992 17Z" fill="#0AA0EA"></path><path d="M2.41872 13.6688C2.47715 13.6524 2.53726 13.6362 2.599 13.6205C3.11171 13.49 3.73676 13.389 4.44446 13.389L4.49762 13.3892C4.58626 13.3899 4.67357 13.3921 4.7595 13.3957C4.64492 13.5637 4.53872 13.7455 4.44444 13.942C4.43524 13.9612 4.42615 13.9805 4.41718 14C4.36671 14.1094 4.31992 14.2234 4.27738 14.342C4.17628 14.6239 4.09928 14.9283 4.05525 15.253C4.04938 15.2963 4.04409 15.347 4.03932 15.4041C3.99008 15.9938 3.99682 16.2629 4.00795 17C4.01127 17.22 4.01498 17.3926 4.01771 17.4857C4.03074 17.9298 4.13562 18.6252 4.31303 19H1.33916C0.623061 19 0.0256195 18.1535 0.00922726 17.4245C2.95136e-05 17.0154 -0.0117388 16.2932 0.0263682 15.9559C0.107939 15.2339 0.521192 14.7098 0.975466 14.3596C1.41245 14.0228 1.9309 13.8088 2.39128 13.6766L2.40848 13.6717L2.41872 13.6688Z" fill="#0AA0EA"></path><path d="M15.0834 9.33C15.0261 9.42949 14.964 9.52593 14.8976 9.61901C14.6109 10.0206 14.2426 10.3599 13.8167 10.6129C13.285 10.9287 12.6637 11.11 11.9999 11.11C11.3361 11.11 10.7147 10.9287 10.183 10.6129C9.75719 10.3599 9.38885 10.0206 9.10219 9.61901C9.03575 9.52593 8.97369 9.42949 8.91633 9.33C8.61608 8.80927 8.44434 8.20499 8.44434 7.56C8.44434 7.36964 8.4593 7.18272 8.48811 7.00038C8.75647 5.30182 10.2266 4 11.9999 4C13.7732 4 15.2433 5.30182 15.5117 7.00038C15.5405 7.18272 15.5554 7.36964 15.5554 7.56C15.5554 8.20499 15.3837 8.80927 15.0834 9.33Z" fill="#0AA0EA"></path><path d="M7.01994 10.0243C7.07943 9.80287 7.11115 9.57012 7.11115 9.33004C7.11115 8.65375 6.8594 8.03766 6.44449 7.56909C5.95586 7.01727 5.24095 6.67004 4.44449 6.67004C2.97174 6.67004 1.77783 7.85729 1.77783 9.33004C1.77783 10.232 2.22561 11.0306 2.91099 11.5142C3.34475 11.8202 3.87368 12 4.44449 12C4.57186 12 4.69716 11.9911 4.81976 11.9738C5.28441 11.9082 5.7106 11.7225 6.06612 11.4492C6.52468 11.0968 6.86567 10.5986 7.01994 10.0243Z" fill="#0AA0EA"></path><path d="M17.934 11.4493C18.2895 11.7225 18.7157 11.9082 19.1803 11.9738C19.3029 11.9911 19.4282 12 19.5556 12C20.1264 12 20.6553 11.8202 21.0891 11.5141C21.7745 11.0306 22.2222 10.232 22.2222 9.33004C22.2222 7.85729 21.0283 6.67004 19.5556 6.67004C18.7591 6.67004 18.0442 7.01727 17.5556 7.56909C17.1407 8.03766 16.8889 8.65375 16.8889 9.33004C16.8889 9.57012 16.9206 9.80287 16.9801 10.0243C17.1344 10.5986 17.4754 11.0968 17.934 11.4493Z" fill="#0AA0EA"></path><path d="M6.37097 18.6728C6.22771 18.5403 6.10436 18.3762 6.00893 18.1973C5.88016 17.9559 5.80223 17.6876 5.79477 17.4335C5.77998 16.9291 5.757 15.9342 5.81696 15.4918C5.84373 15.2944 5.89027 15.111 5.95085 14.9421C6.02317 14.7405 6.11797 14.5597 6.2284 14.3977C6.44704 14.077 6.72693 13.8296 7.01492 13.6386C7.049 13.616 7.08319 13.5941 7.11741 13.5731C7.57939 13.2888 8.09607 13.1117 8.52836 12.9865C8.90312 12.878 9.34966 12.7693 9.85708 12.6823C10.4851 12.5746 11.2063 12.5001 12 12.5001C12.7938 12.5001 13.515 12.5746 14.143 12.6823C14.6504 12.7693 15.0969 12.878 15.4717 12.9865C15.904 13.1117 16.4207 13.2888 16.8826 13.5731C16.9169 13.5941 16.9511 13.616 16.9851 13.6386C17.2731 13.8296 17.553 14.077 17.7717 14.3977C17.8821 14.5597 17.9769 14.7405 18.0492 14.9421C18.1098 15.111 18.1563 15.2944 18.1831 15.4918C18.2431 15.9342 18.2201 16.9291 18.2053 17.4335C18.1978 17.6876 18.1199 17.9559 17.9911 18.1973C17.8957 18.3762 17.7723 18.5403 17.6291 18.6729C17.4139 18.872 17.1537 19 16.8757 19H7.12439C6.84638 19 6.5862 18.872 6.37097 18.6728Z" fill="#0AA0EA"></path></svg>

<svg xmlns="http://www.w3.org/2000/svg" height="24" width="24" preserveAspectRatio="xMidYMid meet" fill="#0aa0ea" xmlns:v="https://vecta.io/nano"><path d="M19.992 17l-.031-1.596-.016-.151a4.48 4.48 0 0 0-.222-.911l-.14-.342-.027-.058c-.094-.197-.2-.378-.315-.546l.262-.006h.053a7.47 7.47 0 0 1 1.846.232l.18.048.01.003.017.005c.46.132.979.346 1.416.683.454.35.868.874.949 1.596.038.337.026.059.017.468-.016.729-.614 2.576-1.33 2.576h-2.974c.177-.375.282-1.07.295-1.514l.01-.486zM2.419 13.669l.18-.048a7.49 7.49 0 0 1 1.845-.232h.053l.262.006a4.17 4.17 0 0 0-.315.546L4.417 14l-.14.342a4.48 4.48 0 0 0-.222.911l-.016.151c-.049.59-.042.859-.031 1.596l.01.486c.013.444.118 1.139.295 1.514H1.339c-.716 0-1.314-.846-1.33-1.576l.017-1.469c.082-.722.495-1.246.949-1.596.437-.337.955-.551 1.416-.683l.017-.005.01-.003zM15.083 9.33l-.186.289a3.57 3.57 0 0 1-1.081.994c-.532.316-1.153.497-1.817.497s-1.285-.181-1.817-.497a3.57 3.57 0 0 1-1.081-.994l-.186-.289a3.53 3.53 0 0 1-.472-1.77c0-.19.015-.377.044-.56a3.56 3.56 0 0 1 7.024 0c.029.182.044.369.044.56a3.53 3.53 0 0 1-.472 1.77zm-8.063.694a2.69 2.69 0 0 0 .091-.694c0-.676-.252-1.292-.667-1.761-.489-.552-1.204-.899-2-.899a2.66 2.66 0 0 0-2.667 2.66 2.67 2.67 0 0 0 1.133 2.184A2.65 2.65 0 0 0 4.444 12c.127 0 .253-.009.375-.026a2.65 2.65 0 0 0 1.246-.525 2.67 2.67 0 0 0 .954-1.425zm10.914 1.425a2.65 2.65 0 0 0 1.246.525c.123.017.248.026.375.026a2.65 2.65 0 0 0 1.534-.486 2.67 2.67 0 0 0 1.133-2.184 2.66 2.66 0 0 0-2.667-2.66c-.796 0-1.511.347-2 .899-.415.469-.667 1.085-.667 1.761a2.67 2.67 0 0 0 .091.694c.154.574.495 1.072.954 1.425zM6.371 18.673a1.81 1.81 0 0 1-.362-.476c-.129-.241-.207-.51-.214-.764l.022-1.942a2.7 2.7 0 0 1 .134-.55 2.36 2.36 0 0 1 .278-.544 2.84 2.84 0 0 1 .787-.759l.102-.066c.462-.284.979-.461 1.411-.587a12.2 12.2 0 0 1 1.329-.304 12.69 12.69 0 0 1 4.286 0c.507.087.954.196 1.329.304.432.125.949.302 1.411.587l.102.066a2.84 2.84 0 0 1 .787.759 2.42 2.42 0 0 1 .277.544 2.7 2.7 0 0 1 .134.55c.06.442.037 1.437.022 1.942-.008.254-.085.522-.214.764-.095.179-.219.343-.362.476-.215.199-.475.327-.753.327H7.124c-.278 0-.538-.128-.753-.327z"/></svg>
